actions/16/send_signal.svg

<svg xmlns="http://www.w3.org/2000/svg" viewBox="0 0 16 16">
  <defs id="defs3051">
    <style type="text/css" id="current-color-scheme">.ColorScheme-Text {color:#fcfcfc;}</style>
  </defs>
 <path style="fill:currentColor;fill-opacity:1;stroke:none" 
     d="m7 2v1h5s1 0 1 1v8c0 1-1 1-1 1h-5v1h5s2 0 2-2v-8c0-2-2-2-2-2zm-5 4v1h5v-1zm1 2v1h4v-1zm2 2v1h2v-1z"
     class="ColorScheme-Text"
     />
</svg>

<svg xmlns="http://www.w3.org/2000/svg" viewBox="0 0 16 16">
  <defs id="defs3051">
    <style type="text/css" id="current-color-scheme">
      .ColorScheme-Text {
        color:#eff0f1;
      }
      </style>
  </defs>
 <path style="fill:currentColor;fill-opacity:1;stroke:none" 
     d="M 7 2 L 7 3 L 13 3 L 13 13 L 7 13 L 7 14 L 13 14 L 14 14 L 14 3 L 14 2 L 7 2 z M 2 6 L 2 7 L 7 7 L 7 6 L 2 6 z M 3 8 L 3 9 L 7 9 L 7 8 L 3 8 z M 5 10 L 5 11 L 7 11 L 7 10 L 5 10 z "
     class="ColorScheme-Text"
     />
</svg>
